public/icon/question.svg

<svg width="33" height="33" viewBox="0 0 33 33" fill="none" xmlns="http://www.w3.org/2000/svg">
<path d="M15.9954 0.575195L14.8476 0.637536L13.7034 0.780552L12.5703 1.00791L11.4629 1.31595L10.3774 1.70466L9.32495 2.17038L8.30183 2.70944L7.33005 3.32185L6.39861 4.00393L5.51851 4.74835L4.69708 5.55511L3.93799 6.42054L3.24125 7.33731L2.61051 8.30542L2.04944 9.31021L1.56906 10.359L1.15834 11.4335L0.831971 12.5372L0.586276 13.6667L0.41759 14.8072L0.336914 15.955V17.1101L0.41759 18.2542L0.586276 19.3947L0.831971 20.5242L1.15834 21.6243L1.56906 22.7024L2.04944 23.7512L2.61051 24.756L3.24125 25.7241L3.93799 26.6409L4.69708 27.5063L5.51851 28.3131L6.39861 29.0575L7.33005 29.7396L8.30183 30.352L9.32495 30.891L10.3774 31.3531L11.4629 31.7455L12.5703 32.0498L13.7034 32.2809L14.8476 32.4239L15.9954 32.4862L17.1505 32.4679L18.2983 32.3652L19.4314 32.1745L20.5536 31.9068L21.65 31.5621L22.7208 31.1331L23.7586 30.6307L24.7561 30.0549L25.7132 29.4059L26.6153 28.6908L27.466 27.917L28.2581 27.0773L28.9879 26.1862L29.6516 25.2474L30.2493 24.2609L30.7664 23.2305L31.2138 22.167L31.5805 21.0779L31.8702 19.9594L32.0756 18.83L32.2002 17.6822L32.2442 16.5307L32.2002 15.3792L32.0756 14.2314L31.8702 13.102L31.5805 11.9835L31.2138 10.8944L30.7664 9.83093L30.2493 8.80048L29.6516 7.81403L28.9879 6.87526L28.2581 5.98049L27.466 5.14439L26.6153 4.36697L25.7132 3.65555L24.7561 3.00648L23.7586 2.43074L22.7208 1.92835L21.65 1.50297L20.5536 1.1546L19.4314 0.886898L18.2983 0.699876L17.1505 0.593531L15.9954 0.575195ZM16.5564 2.45275L17.6456 2.51509L18.7274 2.66544L19.7945 2.8928L20.8433 3.20817L21.8591 3.60055L22.8492 4.06993L23.7916 4.61633L24.6937 5.23607L25.5445 5.92181L26.3366 6.6699L27.07 7.48033L27.7374 8.34209L28.3388 9.25153L28.8669 10.2086L29.3179 11.2024L29.692 12.2329L29.989 13.2853L30.198 14.3561L30.3227 15.4416L30.3667 16.5307L30.3227 17.6198L30.198 18.7053L29.989 19.7761L29.692 20.8285L29.3179 21.8553L28.8669 22.8491L28.3388 23.8062L27.7374 24.7193L27.07 25.5848L26.3366 26.3915L25.5445 27.1396L24.6937 27.8254L23.7916 28.4451L22.8492 28.9915L21.8591 29.4609L20.8433 29.8533L19.7945 30.1686L18.7274 30.3997L17.6456 30.5463L16.5564 30.6087L15.4673 30.5903L14.3782 30.4803L13.3037 30.2896L12.2476 30.0183L11.2135 29.6662L10.2087 29.2335L9.24427 28.7275L8.32016 28.1407L7.44373 27.4916L6.6223 26.7729L5.85588 25.9918L5.15547 25.1557L4.52106 24.2683L3.95633 23.3332L3.46494 22.3577L3.05423 21.3456L2.72052 20.3041L2.46749 19.2407L2.29881 18.1626L2.21446 17.0771V15.9843L2.29881 14.8952L2.46749 13.8171L2.72052 12.7573L3.05423 11.7158L3.46494 10.7037L3.95633 9.72826L4.52106 8.79315L5.15547 7.90204L5.85588 7.06961L6.6223 6.28852L7.44373 5.56977L8.32016 4.91703L9.24427 4.33396L10.2087 3.82791L11.2135 3.39519L12.2476 3.04315L13.3037 2.76812L14.3782 2.58109L15.4673 2.47108L16.5564 2.45275ZM16.1604 6.20418L15.6727 6.23718L15.196 6.31053L14.7266 6.42421L14.2645 6.57822L13.8208 6.76891L13.3954 6.99994L12.9884 7.26764L12.6107 7.56467L12.2549 7.89838L11.9322 8.25775L11.6425 8.64646L11.3822 9.05718L11.1622 9.48623L10.9788 9.93728L10.8358 10.3993L10.7331 10.8724L10.6708 11.3528L10.6488 11.8368H12.5263L12.5483 11.4408L12.6107 11.0521L12.7133 10.6707L12.8564 10.304L13.036 9.95195L13.2487 9.62191L13.5018 9.31387L13.7805 9.03518L14.0885 8.78948L14.4185 8.57679L14.7742 8.3971L15.1409 8.25775L15.5223 8.15874L15.9147 8.10007L16.3071 8.08173L16.6995 8.10373L17.0918 8.16974L17.4695 8.27242L17.8399 8.41544L18.1883 8.59879L18.5183 8.81882L18.8227 9.06818L19.1014 9.35054L19.3471 9.65858L19.5561 9.99229L19.7321 10.348L19.8678 10.7184L19.9668 11.0997L20.0255 11.4885L20.0402 11.8845L20.0145 12.2769L19.9448 12.6656L19.8385 13.047L19.6918 13.4137L19.5084 13.7621L19.2884 14.0884L16.4721 17.8435L16.2154 18.2176L15.988 18.61L15.7937 19.0207L15.636 19.4424L15.5077 19.8788L15.416 20.3225L15.361 20.7735L15.3463 21.2246H17.2239L17.2385 20.8799L17.2862 20.5388L17.3632 20.2015L17.4732 19.8751L17.6126 19.5597L17.7812 19.2554L17.9756 18.973L20.7919 15.2179L21.0633 14.8145L21.3053 14.3928L21.507 13.9564L21.6684 13.498L21.7894 13.0286L21.8737 12.5519L21.9141 12.0679V11.5838L21.8701 11.0997L21.7857 10.623L21.661 10.1573L21.4997 9.69892L21.2943 9.26254L21.056 8.84082L20.7809 8.44111L20.4729 8.06706L20.1319 7.72236L19.7651 7.40699L19.3691 7.12462L18.9547 6.87526L18.5183 6.66257L18.0673 6.49021L17.6016 6.3582L17.1248 6.26652L16.6408 6.21518L16.1604 6.20418ZM15.3463 24.9797V26.8572H17.2239V24.9797H15.3463Z" fill="url(#paint0_linear_184_1873)"/>
<defs>
<linearGradient id="paint0_linear_184_1873" x1="0.336914" y1="16.5307" x2="32.2442" y2="16.5307" gradientUnits="userSpaceOnUse">
<stop stop-color="#3068D0"/>
<stop offset="0.5" stop-color="#836BAF"/>
<stop offset="1" stop-color="#978262"/>
</linearGradient>
</defs>
</svg>

<svg width="33" height="33" fill="none" xmlns="http://www.w3.org/2000/svg"><path d="m15.995.575-1.147.063-1.145.143-1.133.227-1.107.308-1.086.389-1.052.465-1.023.54-.972.612-.931.682-.88.744-.822.807-.759.866-.697.916-.63.968-.562 1.005-.48 1.049-.41 1.075-.327 1.103-.246 1.13-.168 1.14-.081 1.148v1.155l.08 1.144.17 1.14.245 1.13.326 1.1.411 1.078.48 1.05.562 1.004.63.968.697.917.76.865.82.807.88.745.932.682.972.612 1.023.539 1.052.462 1.086.392 1.107.305 1.133.23 1.145.144 1.147.062 1.156-.018 1.147-.103 1.133-.19 1.123-.268 1.096-.345 1.07-.429 1.039-.502.997-.576.957-.65.902-.714.851-.774.792-.84.73-.89.664-.94.597-.986.517-1.03.448-1.064.367-1.09.29-1.118.205-1.129.124-1.148.044-1.151-.044-1.152-.124-1.148-.206-1.129-.29-1.119-.366-1.089-.448-1.063-.517-1.03-.597-.987-.664-.939-.73-.895-.792-.836-.85-.777-.903-.711-.957-.65-.997-.575-1.038-.503-1.071-.425-1.096-.348L19.43.887 18.298.7 17.151.594 15.995.575Zm.561 1.878 1.09.062 1.081.15 1.067.228 1.05.315 1.015.393.99.469.943.546.902.62.85.686.793.748.733.81.667.862.602.91.528.957.45.993.375 1.03.297 1.053.209 1.071.125 1.086.044 1.089-.044 1.089-.125 1.085-.209 1.071-.297 1.052-.374 1.027-.451.994-.528.957-.602.913-.667.866-.733.806-.793.749-.85.685-.902.62-.943.546-.99.47-1.016.392-1.049.316-1.067.23-1.081.147-1.09.063-1.089-.019-1.089-.11-1.074-.19-1.056-.272-1.034-.352-1.005-.433-.965-.506-.924-.586-.876-.65-.822-.718-.766-.781-.7-.836-.635-.888-.565-.935-.491-.975-.41-1.012-.334-1.042-.254-1.063-.168-1.078-.085-1.086v-1.093l.085-1.089.168-1.078.254-1.06.333-1.041.41-1.012.492-.976.565-.935.634-.891.7-.832.767-.781.822-.72.876-.652.924-.583.965-.506 1.005-.433 1.034-.352 1.056-.275 1.074-.187 1.09-.11 1.088-.018Zm-.396 3.751-.487.033-.477.074-.47.113-.462.154-.443.19-.426.232-.407.268-.377.297-.356.333-.323.36-.29.388-.26.411-.22.43-.183.45-.143.462-.103.473-.062.48-.022.485h1.877l.022-.396.063-.389.102-.381.143-.367.18-.352.213-.33.253-.308.278-.279.309-.246.33-.212.355-.18.367-.14.381-.098.393-.059.392-.018.393.022.392.066.378.102.37.143.348.184.33.22.305.25.278.282.246.308.21.333.175.356.136.37.099.382.059.389.014.395-.025.393-.07.389-.107.381-.146.367-.184.348-.22.326-2.816 3.755-.257.375-.227.392-.194.41-.158.422-.128.437-.092.444-.055.45-.015.452h1.878l.014-.345.048-.341.077-.338.11-.326.14-.315.168-.305.195-.282 2.816-3.755.271-.403.242-.422.202-.437.161-.458.121-.47.085-.476.04-.484v-.484l-.044-.484-.084-.477-.125-.466L21.5 9.7l-.206-.436-.238-.422-.275-.4-.308-.374-.341-.345-.367-.315-.396-.282-.414-.25-.437-.212-.45-.173-.466-.132-.477-.091-.484-.052-.48-.01Zm-.814 18.776v1.877h1.878V24.98h-1.878Z" fill="url(#a)"/><defs><linearGradient id="a" x1=".337" y1="16.531" x2="32.244" y2="16.531" gradientUnits="userSpaceOnUse"><stop stop-color="#3068D0"/><stop offset=".5" stop-color="#836BAF"/><stop offset="1" stop-color="#978262"/></linearGradient></defs></svg>
